X: 16879
T: Hats Off To Hatao
R: waltz
M: 3/4
K: Gmajor
f2 (3efe d2|c2 (3BcB A2|G6-|G2 b2 ^a2|
f2 (3efe d2|c2 (3BcB A2|B6-|B2 b2 ^a2|
d2 (3cdc B2|A2 (3GAG F2|E6-|E2 g2 ^f2|
d2 (3cdc B2|A2 (3GAG F2|G6-|G2 g2 ^f2|

